X: 35578
T: Ryan's Rant
R: reel
M: 4/4
K: Adorian
|:cA~A2 cAdA|eAdA BDGB|cA~A2 cdef|gedc BAGB:|
~A3 B cAeA|ceAc dBGB|cA~A2 cdef|gedc BAGB|
c=F~F2 cFdF|e=FdF BDGB|cF~F2 cdef|gedc BcdB||
~c2 gc acgc|~c2 gc dcBd|~c2 gc acgc|d=fed cA~A2|
Bc{d}cB cdef|gdBc dBGB|Acea c'aba|gedB cA~A2||

